X:1
T:Title
%%score { ( 1 3 ) | ( 2 4 5 ) }
L:1/8
Q:1/4=84
M:6/8
K:Db
V:1 treble nm="Grand Piano"
V:3 treble 
V:2 bass 
V:4 bass 
V:5 bass 
V:1
 FFF [FA][FA][FA] | BGB [FA]3 | [FA]>[FA][FA] [GB]<[FA][DF] | z/ G3/2 z z3 | %4
w: Mrs.~C.~H.~Morris * * * * *||||
 [Fd][Fd][Fd] [Fc][=Ac][Ac] | BGB [FA]3 | [Fd]>[FA][DF] [CA]<[CG][CE] | [A,D]6 | %8
w: ||||
 z/ [FA]/- [FA]2- [FA][K:bass] z z | z/ d/- d2- d2 z | [FA]>[GB][FA] GFE | A6 | F>EF G>FG | %13
w: |||||
[M:7/8] AAd d3 B |[M:3/4] A>d de/d/- dc | d-[Fd-] [Gd-] [Fd]3 |] %16
w: |||
V:2
 [D,A,D][D,A,D][D,A,D] [D,D][D,D][D,D] | [G,DG][G,B,][G,DG] [D,D]3 | %2
 [D,D]>[D,D][D,D] [D,D]<[D,D][D,A,] | z/ E3/2 z z3 | [B,,F,][B,,B,][B,,B,] [F,=A,][F,C][F,E] | %5
 [G,DG][G,B,D][G,DG] [D,D]3 | [D,A,]>[D,A,][D,A,] [A,,A,]<[A,,A,][A,,G,] | [D,F,]6 | %8
 [D,A,]<[D,D]D, .D,3 | [G,DG]<G-[G,G-] [G,G]2 [G,DG] | [D,D]>[D,D][D,D] [A,CE][A,D][G,A,C] | %11
 [F,A,D]2 [E,G,] [D,F,]2 [C,A,] | [D,A,D]>[D,A,C][D,A,D] [E,A,C]2 [E,A,C] | %13
[M:7/8] [F,A,D][F,A,D][F,_CD] [G,B,D]3[K:treble] [G,DG] | %14
[M:3/4] [A,DF]>[A,DF] [A,DF][A,CG]/[A,F]/- [A,F][A,G] | .A,2 z2 z2 |] %16
V:3
 x6 | x6 | x6 | .[EA]A,[A,DF] .[A,CE]3 | x6 | x6 | x6 | x6 | .[DF]2 D D[K:bass]E,F, | %9
 .B2 B, B,2 B | x6 | z2 C D2 [EG] | x6 |[M:7/8] x7 |[M:3/4] x6 | .F2 z2 z2 |] %16
V:4
 x6 | x6 | x6 | z C,D, z2 G, | x6 | x6 | x6 | x6 | x6 | z/ [G,B,]3/2 z z3 | x6 | x6 | x6 | %13
[M:7/8] x6[K:treble] x |[M:3/4] x6 | D,-[D,-A,] [D,-B,] [D,A,]3 |] %16
V:5
 x6 | x6 | x6 | .[C,A,]3 A,,3 | x6 | x6 | x6 | x6 | x6 | x6 | x6 | x6 | x6 | %13
[M:7/8] x6[K:treble] x |[M:3/4] x6 | x6 |] %16

